resources/public/images/frame.svg

<svg width="99px" height="99px" viewBox="0 0 99 99" version="1.1" xmlns="http://www.w3.org/2000/svg" xmlns:xlink="http://www.w3.org/1999/xlink">
  <defs>
    <path d="M11,0 L10.9996,10 L17.5287424,10.0007058 C19.0640602,7.24857892 19.9219905,4.14230946 19.9945787,0.94276326 L19.9996,0.5 L19.9996,0 L25,0 L25,1 L20.9935087,1 C20.916398,4.16396172 20.1088304,7.24029495 18.6653221,10.0006106 L25,10 L25,11 L18.1059632,11.0010743 C17.2452502,12.4442494 16.2034063,13.7876226 14.9952005,14.9955063 C13.7872021,16.2038268 12.4438362,17.2457241 11.0007048,18.1064559 L11,25 L10,25 L10.0002755,18.6658226 C7.24006321,20.1093392 4.16389125,20.9168169 0.9996,20.9939107 L0.9996,20.9939107 L0.9996,25 L-0.0004,25 L-0.0004,20 L0.4996,20 C3.85536356,20 7.12156884,19.1353004 10.0003663,17.529233 L9.9996,11 L-1.38555833e-13,11 L-1.38555833e-13,0 L11,0 Z M16.9305553,11.0014205 L11,11 L11.0010461,16.9310331 C12.1800844,16.1774505 13.2833133,15.2934479 14.2880937,14.2883995 C15.2930442,13.283717 16.1769955,12.1804918 16.9305553,11.0014205 Z M10,1 L1,1 L1,10 L10,10 L10,1 Z"
          id="A" stroke="none" fill="#000"/>
  </defs>
  <g><use xlink:href="#A"/></g>
  <g transform="translate(12.5, 86.5) scale(1, -1) translate(-12.5, -86.5) translate(0.0, 74.0)">
    <use xlink:href="#A"/>
  </g>
  <g transform="translate(86.5, 86.5) scale(-1, -1) translate(-86.5, -86.5) translate(74.0, 74.0)">
    <use xlink:href="#A"/>
  </g>
  <g transform="translate(86.5, 12.5) scale(-1, 1) translate(-86.5, -12.5) translate(74.0, 0.0)">
    <use xlink:href="#A"/>
  </g>
  <g stroke="none" fill="#000" fill-rule="nonzero">
    <polygon points="21 11 78 11 78 10 21 10"/>
    <polygon points="0 22 0 78 1 78 1 22"/>
    <polygon points="10 22 10 78 11 78 11 22"/>
    <polygon points="88 22 88 78 89 78 89 22"/>
    <polygon points="21 89 78 89 78 88 21 88"/>
    <polygon points="21 1 78 1 78 0 21 0"/>
    <polygon points="98 22 98 78 99 78 99 22"/>
    <polygon points="21 99 78 99 78 98 21 98"/>
  </g>
</svg>

<svg width="99" height="99" xmlns="http://www.w3.org/2000/svg"><g fill="none" fill-rule="evenodd"><path d="M11 0v10h6.53A19.5 19.5 0 0019.99.94L20 .5V0h5v1h-4a20.5 20.5 0 01-2.33 9H25v1h-6.9a20.48 20.48 0 01-7.1 7.1V25h-1v-6.33a20.5 20.5 0 01-9 2.32V25H0v-5h.5c3.36 0 6.62-.86 9.5-2.47V11H0V0h11zm5.93 11H11v5.93A19.49 19.49 0 0016.93 11zM10 1H1v9h9V1zM11 99V89h6.53a19.5 19.5 0 012.46 9.06l.01.44v.5h5v-1h-4a20.5 20.5 0 00-2.33-9H25v-1h-6.9a20.48 20.48 0 00-7.1-7.1V74h-1v6.33a20.5 20.5 0 00-9-2.32V74H0v5h.5c3.36 0 6.62.86 9.5 2.47V88H0v11h11zm5.93-11H11v-5.93A19.49 19.49 0 0116.93 88zM10 98H1v-9h9v9zM88 99V89h-6.53a19.5 19.5 0 00-2.46 9.06l-.01.44v.5h-5v-1h4a20.5 20.5 0 012.33-9H74v-1h6.9a20.48 20.48 0 017.1-7.1V74h1v6.33a20.5 20.5 0 019-2.32V74h1v5h-.5c-3.36 0-6.62.86-9.5 2.47V88h10v11H88zm-5.93-11H88v-5.93A19.49 19.49 0 0082.07 88zM89 98h9v-9h-9v9zM88 0v10h-6.53A19.5 19.5 0 0179.01.94L79 .5V0h-5v1h4a20.5 20.5 0 002.33 9H74v1h6.9a20.48 20.48 0 007.1 7.1V25h1v-6.33a20.5 20.5 0 009 2.32V25h1v-5h-.5a19.5 19.5 0 01-9.5-2.47V11h10V0H88zm-5.93 11H88v5.93A19.49 19.49 0 0182.07 11zM89 1h9v9h-9V1z" fill="#000" stroke="none"/><path fill="#000" fill-rule="nonzero" d="M21 11h57v-1H21zM0 22v56h1V22zM10 22v56h1V22zM88 22v56h1V22zM21 89h57v-1H21zM21 1h57V0H21zM98 22v56h1V22zM21 99h57v-1H21z"/></g></svg>
